!!!COM: Vivaldi, Antonio Lucio
!!!CDT: 1678/03/04-1741/08/28
!!!OPR: 12 Sonatas for Violin and Basso continuo
!!!OTL: Sonata in F major, op. @{OPS}, no. @{ONM} (@{SCT})
!!!OPS: 2
!!!ONM: 4
!!!OMV: 1. [Andante]
!!!SCT: RV 20
!!!SCA: Antonio Vivaldi: Thematisch-systematisches Verzeichnis seiner Werke (Ryom-Verzeichnis)
!!!OMD: Andante
!!!key: F
**kern	**fb	**kern
*part2	*	*part1
*staff2	*	*staff1
*ICklav	*	*ICstr
*Icemba	*	*Ivioln
*I"Basso continuo	*	*I"Violino
*I'bc	*	*I'v
*>[A,A,B,B]	*>[A,A,B,B]	*>[A,A,B,B]
*>norep[A,B]	*>norep[A,B]	*>norep[A,B]
*>A	*>A	*>A
*clefF4	*	*clefG2
*k[b-]	*	*k[b-]
*F:	*	*F:
*M3/2	*	*M3/2
*MM200	*	*MM200
=1	=1	=1
1.r	.	2ff\
.	.	2f/
.	.	[2ff\
=2	=2	=2
2G\	7	2ff\]
2GG/	6	(4ee\
.	.	4dd\
[2G\	.	4cc\
.	.	4b-y\)
=3	=3	=3
2G\]	4 2	2a/
(4F\	5	[1aa\
4E\	.	.
4D\	.	.
4C/)	.	.
=4	=4	=4
2BB-y/	7	2aa\]
[1B-y	6	(4gg\
.	.	4ff\
.	.	4ee\
.	.	4dd\)
=5	=5	=5
2B-y\]	4 2	2cc\
(4A\	5	[1ccc\
4G\	.	.
4F\	.	.
4E\)	.	.
=6	=6	=6
2D\	.	2ccc\]
4d\	.	(4bb-y\
4c\	.	4aa\
[2B-y\	6	4gg\
.	.	4ff\)
=7	=7	=7
2B-y\]	4 2	2ee\
[1A	6	(4ff\
.	.	4gg\
.	.	4aa\
.	.	4cc\)
!!LO:LB:g=original
=8	=8	=8
2A\]	4 2	2dd\
[1G	6	(4ee\
.	.	4ff\
.	.	4gg\
.	.	4bn\)
=9	=9	=9
2G\]	4 2	2cc\
1F	6	(4dd\
.	.	4ee\
.	.	4ff\
.	.	4a/)
=10	=10	=10
2G\	7	4b-y\
.	.	4ff\
2c\	.	(4g/
.	.	4cc\
2C/	.	4ff\
.	.	4ee\)
=11	=11	=11
4F\	.	2ff\
4A\	.	.
(4c\	.	2r
4B-y\	.	.
4A\	.	2r
4G\)	.	.
=12	=12	=12
1.F	.	4r
.	.	4ff\
.	.	(4aa\
.	.	4ff\
.	.	4cc\
.	.	4aa\)
=13	=13	=13
1.E	6	(4gg\
.	.	4ee\
.	.	4cc\
.	.	4ee\)
.	.	4gg\
.	.	4ee\
=14	=14	=14
2.D\	.	(4ff\
.	.	4a/
.	.	4bn\
4C/	.	4aa\)
2BBn/	6	(4gg\
.	.	4ff\)
!!LO:LB:g=original
=15	=15	=15
4C/	.	2ee\
4E\	.	.
4G\	.	4r
4E\	.	(4cc\
4C/	.	4ee\
4E\	.	4gg\)
=16	=16	=16
4FF/	.	4a/
4F\	.	4aa\
4A\	.	4r
4F\	.	(4dd\
4D\	.	4ff\
4F\	.	4aa\)
=17	=17	=17
4GG/	n	4bn\
4G\	.	4bbn\
4Bn\	.	4r
4d\	.	(4bn\
4Bn\	.	4dd\
4G\	.	4ff\)
=18	=18	=18
(4c\	.	(4ee\
4Bn\	.	4dd\
4A\	.	4cc\
4G\	.	4bn\
4F\	.	4a/
4E\)	.	4g/)
=19	=19	=19
(4D\	.	(4ff\
4C/	.	4ee\
4BBn/	.	4dd\
4AA/	.	4cc\
4GG/	.	4bn\
4FF/)	.	4a/)
=20	=20	=20
2EE/	6	4g/
.	.	4cc\
2FF/	6 5	4d/
.	.	4cc\
2GG/	n	4G/
.	.	4bn\
=21	=21	=21
1.C/	.	1.c
=22:|!|:	=22:|!|:	=22:|!|:
*>B	*>B	*>B
2c\	.	1.r
2C/	.	.
[2c\	.	.
!!LO:LB:g=original
=23	=23	=23
2c\]	4 2	2dd\
(4Bn\	6	2d/
4A\	.	.
4G\	.	[2dd\
4F\)	.	.
=24	=24	=24
2E\	7	2dd\]
*clefC4	*	*
[1e	6	(4cc\
.	.	4bn\
.	.	4a/
.	.	4g/)
=25	=25	=25
2e\]	4 2	2f/
(4d\	6nr	[1ff\
4c\	.	.
4Bn\	.	.
4A\)	.	.
=26	=26	=26
2G/	7 n	2ff\]
[1g	6	(4ee\
.	.	4dd\
.	.	4cc\
.	.	4bn\)
=27	=27	=27
2g\]	4 2	2a/
(4f\	5	[1aa\
4e\	.	.
4d\	.	.
4c\)	.	.
=28	=28	=28
1.B-X	7	2aa\]
.	6	(4gg\
.	.	4ff\
.	.	4ee\
.	.	4dd\)
=29	=29	=29
2A\	#	(4cc#X\
.	.	4dd\)
1C#X	6	(4ee\
.	.	4a/)
.	.	(4aa\
.	.	4gg\)
=30	=30	=30
(4D/	.	(2.ff\
4F/)	.	.
(4A\	.	.
4D/)	.	4bb-y\)
[2d\	.	(4gg\
.	.	4ff\)
!!LO:LB:g=original
=31	=31	=31
(4d\]	4 2	(2.ee\
4Bn\)	.	.
[1c	6	.
.	.	4aa\)
.	.	(4ff\
.	.	4ee\)
=32	=32	=32
(4c\]	4 2	(2.dd\
4A\)	.	.
1B-X	6	.
.	.	4gg\)
.	.	(4ee\
.	.	4dd\)
=33	=33	=33
(4A\	#	2cc#y\
4G/)	.	.
(4F/	6	[1dd
4E/)	.	.
(4F/	.	.
4D/)	.	.
=34	=34	=34
(4G/	6 5	4dd\]
4E/)	.	4ee\
4A\	5 4	2.cc#X\t
4G\	.	.
4A\	#	.
4AA/	.	4dd\
=35	=35	=35
2D/	.	(4dd\
.	.	4ff\)
1F	6	(4aa\
.	.	4ff\)
.	.	(4dd\
.	.	4cc\)
=36	=36	=36
1G	n	(4bn\
.	.	4dd\)
.	.	(4g/
.	.	4bn\)
2F/	6 4nr	(4dd\
.	.	4bn\)
=37	=37	=37
1.E-X	6	(4cc\
.	.	4g/
.	.	4cc\
.	.	4ee-X\
.	.	4gg\
.	.	4cc\)
!!LO:LB:g=original
=38	=38	=38
1.En	5	(4b-y\
.	.	4een\
.	.	4gg\
.	.	4ee\
.	.	4cc\
.	.	4b-y\)
=39	=39	=39
4F/	.	2a/
4A\	.	.
4c\	.	4r
4A\	.	(4f/
4F/	.	4a/
4A\	.	4cc\)
=40	=40	=40
4BB-y/	.	4d/
4B-y\	.	4dd\
4d\	.	4r
4B-y\	.	(4g/
4G\	.	4b-y\
4B-y\	.	4dd\)
=41	=41	=41
4C/	.	4e/
4e\	.	4ee\
4e\	.	4r
4e\	.	(4cc\
(4.e\t	.	4ee\
.	.	4gg\)
16d\LL	.	.
16e\JJ)	.	.
=42	=42	=42
(4f\	.	(4aa\
4e\	.	4gg\
4d\	.	4ff\
4c\	.	4ee\
4B-y\	.	4dd\
4A\)	.	4cc\)
=43	=43	=43
(4G/	.	(4bb-y\
4F/	.	4aa\
4E/	.	4gg\
4D/	.	4ff\
4C/	.	4ee\
4BB-y/)	.	4dd\)
=44	=44	=44
2AA/	6	4cc\
.	.	4ff\
2BB-y/	6 5	4g/
.	.	4ff\
2C/	.	4c/
.	.	4ee\
!!LO:LB:g=original
=45	=45	=45
2F/	.	4f/
.	.	4a/
4r	.	4cc\
(4F/	.	4a/
4A\	.	4f/
4c\)	.	4a/
=46	=46	=46
4D/	.	4B-y/
4d\	.	4b-y\
4r	.	4dd\
(4G/	.	4b-y\
4B-y\	.	4g/
4d\)	.	4b-y\
=47	=47	=47
4E/	6	4c/
4e\	.	4ee\
4r	.	4ee\
(4C/	.	4ee\
4E/	.	(4.ee\t
4G/)	.	.
.	.	16dd\LL
.	.	16ee\JJ)
=48	=48	=48
(4A/	.	(4ff\
4G/	.	4ee\
4F/	.	4dd\
4E/	.	4cc\
4D/	.	4b-y\
4C/)	.	4a/)
=49	=49	=49
(4B-y\	.	(4g/
4A\	.	4f/
4G/	.	4e/
4F/	.	4d/
4E/	.	4c/
4D/)	.	4B-y/)
=50	=50	=50
2C/	.	2A/t
2r	.	4r
.	.	4ff\
2F/	.	4a/
.	.	4ff\
=51	=51	=51
2G/	.	4b-y\
.	.	4ff\
2c\	.	4cc\
.	.	4ff\
2C/	.	4c/
.	.	4ee\
=52	=52	=52
1.FF;	.	1.ff\;
=:|!	=:|!	=:|!
*-	*-	*-
!!!SMS: RV 20 / Estienne Roger, Amsterdam [facs.]
!!!ENC: Fran Bennion; rev. 04/21 E. Correia
!!!END: 2004/11/24
!!!ONB: Converted from MuseData with musedata2hum on Sat May 11 12:07:51 2024
!!!YEM: (C) 2004, 2004 Center for Computer Assisted Research in the Humanities.
!!!system-decoration: [(s1,s2)]
!!!URL-info: https://wiki.ccarh.org/wiki/MuseData:_Antonio_Vivaldi#Op._2:_Sonate_a_violino_e_basso_per_il_cembalo
!!!URL-pdf: https://pdf.musedata.org/vivaldi-op02-no04.pdf#page=1 MuseData edition
!!!URL-pdf: http://conquest.imslp.info/files/imglnks/usimg/b/b7/IMSLP99075-PMLP183164-Vivaldi_-_Sonatas_Op2.pdf#page=13 Estienne Roger Amsterdam: Estienne Roger, No.2, n.d.[1711].
!!!URL-youtube: https://www.youtube.com/watch?v=SiijZmW9jKM&t=949s L'Arte dell'Arco
!!!title: @{OTL}, mov. @{OMV}
!!!filter-chint: chint -mid
!!!EEV: 2024/05/11
!!!source-file: https://bitbucket.org/musedata/vivaldi/src/master/roger/op2/no04/stage2/01/01
!!!source-file: https://bitbucket.org/musedata/vivaldi/src/master/roger/op2/no04/stage2/01/02
